app/assets/img/favicon.svg

<svg fill="none" height="16" viewBox="0 0 16 16" width="16" xmlns="http://www.w3.org/2000/svg"><path d="m0 0h16v16h-16z" fill="#000e15"/><path d="m7.1264 6.55248s-.06077-.03575-.18232-.10725-.28242-.15015-.48261-.23594c-.20019-.09295-.41826-.17517-.65421-.24667-.23594-.0715-.46831-.10725-.6971-.10725-.17875 0-.32532.0286-.43971.0858-.1144.0572-.1716.15372-.1716.28956 0 .1287.0572.23237.1716.31102.11439.07865.27526.15015.48261.21449.21449.06435.46831.143.76145.23595.47189.14299.87943.30744 1.22262.49333.34319.1859.60773.42542.79362.71856.1859.28599.27884.6685.27884 1.14754 0 .45759-.08222.84368-.24666 1.15828-.16445.3074-.38609.5541-.66493.74-.27885.1859-.58986.3217-.93305.4075-.34319.0787-.69353.118-1.05102.118-.36464 0-.74715-.0358-1.14754-.1072-.39324-.0787-.77576-.1824-1.14754-.3111-.37179-.1358-.71141-.2931-1.01885-.4719l.90087-1.83387s.0715.0429.2145.12869c.14299.0858.33246.18232.56841.28957.23594.10725.49691.20377.7829.28957.29314.08579.58628.12869.87942.12869.2288 0 .38609-.0286.47189-.08579.09295-.06435.13942-.14658.13942-.24667 0-.15015-.07865-.26454-.23594-.34319-.1573-.0858-.36464-.16445-.62204-.23594-.25024-.07865-.52908-.16803-.83652-.26812-.44329-.15015-.80793-.31817-1.09392-.50406-.28599-.19305-.49691-.41827-.63276-.67566-.13584-.26454-.20376-.58271-.20376-.95449 0-.56484.13227-1.03672.39681-1.41566s.61131-.66493 1.04029-.85798c.43614-.20019.90445-.30029 1.40494-.30029.37179 0 .72928.04647 1.07247.13942.35034.0858.67565.19305.97594.32174.30744.1287.57556.25024.80435.36464z" fill="#fff"/><path d="m8.77686 11.6789v-7.61455h5.22294v1.82319h-3.1316v1.26552h2.5524v1.6945h-2.5524v2.83134z" fill="#91e300"/></svg>

<svg width="16" height="16" viewBox="0 0 16 16" fill="none" xmlns="http://www.w3.org/2000/svg">
<rect width="16" height="16" fill="#000E15"/>
<path d="M7.1264 6.55248C7.1264 6.55248 7.06563 6.51673 6.94408 6.44523C6.82253 6.37373 6.66166 6.29508 6.46147 6.20929C6.26128 6.11634 6.04321 6.03412 5.80726 5.96262C5.57132 5.89112 5.33895 5.85537 5.11016 5.85537C4.93141 5.85537 4.78484 5.88397 4.67045 5.94117C4.55605 5.99837 4.49885 6.09489 4.49885 6.23073C4.49885 6.35943 4.55605 6.4631 4.67045 6.54175C4.78484 6.6204 4.94571 6.6919 5.15306 6.75624C5.36755 6.82059 5.62137 6.89924 5.91451 6.99219C6.3864 7.13518 6.79394 7.29963 7.13713 7.48552C7.48032 7.67142 7.74486 7.91094 7.93075 8.20408C8.11665 8.49007 8.20959 8.87258 8.20959 9.35162C8.20959 9.80921 8.12737 10.1953 7.96293 10.5099C7.79848 10.8173 7.57684 11.064 7.298 11.2499C7.01915 11.4358 6.70814 11.5716 6.36495 11.6574C6.02176 11.7361 5.67142 11.7754 5.31393 11.7754C4.94929 11.7754 4.56678 11.7396 4.16639 11.6682C3.77315 11.5895 3.39063 11.4858 3.01885 11.3571C2.64706 11.2213 2.30744 11.064 2 10.8852L2.90087 9.05133C2.90087 9.05133 2.97237 9.09423 3.11537 9.18002C3.25836 9.26582 3.44783 9.36234 3.68378 9.46959C3.91972 9.57684 4.18069 9.67336 4.46668 9.75916C4.75982 9.84495 5.05296 9.88785 5.3461 9.88785C5.5749 9.88785 5.73219 9.85925 5.81799 9.80206C5.91094 9.73771 5.95741 9.65548 5.95741 9.55539C5.95741 9.40524 5.87876 9.29085 5.72147 9.2122C5.56417 9.1264 5.35683 9.04775 5.09943 8.97626C4.84919 8.89761 4.57035 8.80823 4.26291 8.70814C3.81962 8.55799 3.45498 8.38997 3.16899 8.20408C2.883 8.01103 2.67208 7.78581 2.53623 7.52842C2.40039 7.26388 2.33247 6.94571 2.33247 6.57393C2.33247 6.00909 2.46474 5.53721 2.72928 5.15827C2.99382 4.77933 3.34059 4.49334 3.76957 4.30029C4.20571 4.1001 4.67402 4 5.17451 4C5.5463 4 5.90379 4.04647 6.24698 4.13942C6.59732 4.22522 6.92263 4.33247 7.22292 4.46116C7.53036 4.58986 7.79848 4.7114 8.02727 4.8258L7.1264 6.55248Z" fill="white"/>
<path d="M8.77686 11.6789V4.06435H13.9998V5.88754H10.8682V7.15306H13.4206V8.84756H10.8682V11.6789H8.77686Z" fill="#91E300"/>
</svg>
